X: 281
T: A Munster
R: jig
M: 6/8
K: Edorian
|:~E3 B2B|BAF d3|~E3 B2B|BAG FED|
~E3 B2B|BAF d2e|fed dcB|A2G FED:|
|:B2e fBf|g2f e2d|~B3 e2f|gfe fdB|
AFA d2e|f2c dcB|~A3 dcB|A2G FED:|

